X:1
T:Owen's quick step
T:Owen's quick step
T:Isaac J. Shaw
T:Credit: Library of Congress, Music Division - public domain
T:Credit: Library of Congress, Music Division - public domain
C:Isaac J. Shaw
Z:Credit: Library of Congress, Music Division - public domain
%%score { 1 | 2 }
L:1/8
Q:1/4=135
M:2/4
K:C
V:1 treble nm="Piano" snm="Pno."
V:2 bass 
V:1
!ff! !wedge!g | [ec']>g [fb]>g | [ec']!ff![egc'] z !wedge!d | [Bg]>d [c^f]>d | [Bg][Bdg] z2 | %5
 (G/B/).d/.=f/!>(! (af)!>)! | (c/e/)g/c'/!>(! (ba)!>)! | g3/2(b/4a/4) (3g/a/g/ (3f/d/e/ | c3 :: %9
[K:G]!f! z |!p! [Bdg]3 b/>a/ | g/>a/f/>g/ ed | d/>e/f/>g/ a/>d/g/>a/ | b/>d/a/>d/ g z | %14
 !>![dfa]3!p! c'/>b/ | (3a/b/a/ (3g/a/g/ (3f/g/f/ (3e/f/e/ | d2 (3e/f/g/ (3e/f/g/ | %17
 g/>d/f/>d/ (3g z z |!f! [Bdg]3!p! b/>a/ | g/>a/^f/>g/ ed | d/>e/f/>g/ a/>d/g/>a/ | %21
 b/>d/a/>d/ g z |!f! [dfa]3!p! c'/>b/ | (3a/b/a/ (3g/a/g/ (3f/g/f/ (3e/f/e/ | %24
 d2 (3e/f/g/ (3e/f/g/ | g/>d/f/>d/ g z ||[K:C]!ff! g | [ec']>g [fb]>g | [ec']!f![egc'] z d | %29
 [Bg]>d [c^f]>d | [Bg]!f![Bdg] z2 | (G/B/).d/.f/ af | c/e/g/c'/ ba | %33
 g3/2(b/4a/4) (3g/a/g/ (3f/d/e/ | c3 g | [ec']>g [fb]>g | [ec']!f![egc'] z d | [Bg]>d [c^f]>d | %38
!f! [Bg][Bdg] z2 | G/B/.d/.f/ af | c/e/g/c'/ ba | g3/2b/4a/4 (3g/a/g/ (3f/d/e/ | c3!fine! || %43
[K:F][M:6/8]"^TRIO" z6 | z6 |!8va(! [ac']6- | [ac'](!>![bd'][ac']) [gb](!>![ac'][gb])!8va)! | %47
"^Loco."!<(! [fa] z z [Acf] z z | [Acf] z z [Acf] z z!<)! |!8va(! [gb]6- | %50
 [gb](!>![ac'][gb]) [fa](!>![gb][fa])!8va)! |"^Loco."!<(! [EA]ce feg | bgb d'c'=b!<)! | %53
!p!!8va(! [ac']6- | [ac'][fa][ac'] [d'f'][c'e'][bd'] | [ac']3- [ac']2 =b | %56
 [g_b][eg][gb] [bd'][ac'][gb] | !>![fa]3- [fa][gb][ac'] | !>![eg]3- [eg][fa][gb] | %59
 !>![ce]3- [ce]fg!8va)! |"^Loco." [Acf]3- [Acf]2!D.C.! :| %61
V:2
 z | C,E, G,G,, | C,[C,C] z z | G,B, DD, | G,[G,,G,] z2 | G,[B,D] G,[B,D] | G,[CE] G,[DF] | %7
 G,[B,D] G,[B,D] | CG,C, ::[K:G] z | [G,,B,,D,G,]3 z | D,[F,A,C] D,[F,A,C] | D,[F,A,C] D,[G,B,D] | %13
 G,[F,A,D] [G,B,D] z | !>![D,F,A,C]3 z | D,[F,A,C] D,[F,A,C] | D,[F,A,C]D,[F,A,C] | %17
 [G,B,][D,A,C] (3[G,B,] z z | [G,,B,,D,G,]3 z | D,[F,A,C] D,[F,A,C] | D,[F,A,C] D,[G,B,] | %21
 G,[F,A,D] [G,B,D] z | [D,F,A,C]3 z | D,[F,A,C] D,[F,A,C] | D,[F,A,C]D,[F,A,C] | %25
 [G,B,][D,A,C] [G,B,] z ||[K:C] z | C,>E, G,>G,, | C,[C,C] z z | G,>B, D>D, | G,[G,,G,] z2 | %31
 G,[B,D] G,[B,D] | G,[CE] G,[DF] | G,[B,D] G,[B,D] | CG,C, z | C,>E, G,>G,, | C,[C,C] z z | %37
 G,>B, D>D, | G,[G,,G,] z2 | G,[B,D] G,[B,D] | G,[CE] G,[DF] | G,[B,D] G,[B,D] | CG, C, || %43
[K:F][M:6/8]!p! [F,A,C] z z [F,A,C] z z | [F,A,C] z z [F,A,C] z z | [F,A,C] z z [F,A,C] z z | %46
 [F,A,C] z z [E,G,C] z z | [F,A,]A,,C, F,C,F, | A,F,A, CA,F | [C,E,G,C] z z [C,E,G,C] z z | %50
 [C,E,G,C] z z [C,E,G,C] z z | [C,E,G,C] z z [C,E,G,C] z z | [C,E,G,C] z z [C,E,G,C] z z | %53
 [F,A,C] z z [F,A,C] z z | [F,A,C] z z [F,B,D] z z | [F,A,C] z z [F,A,C] z z | %56
 [C,E,G,C] z z [C,E,G,C] z z | [F,A,C] z z [F,A,C] z z | [C,E,G,C] z z [C,E,G,C] z z | %59
 [C,E,G,C] z z [C,E,G,C] z z | [F,,F,]3- [F,,F,]2 :| %61

